svgs/light/trophy-star.svg

<svg xmlns="http://www.w3.org/2000/svg" viewBox="0 0 576 512"><!--! Font Awesome Pro 6.3.0 by @fontawesome - https://fontawesome.com License - https://fontawesome.com/license (Commercial License) Copyright 2023 Fonticons, Inc. --><path d="M368.8 119.8l-41.86-6.125l-18.72-38.09c-7.607-15.48-32.69-15.45-40.23 0L249.2 113.7L207.3 119.8C198.7 121.1 191.8 126.9 189.1 135.2C186.5 143.4 188.6 152.3 194.8 158.2l30.34 29.52L217.9 229.7C216.5 238.2 219.1 246.7 226.9 251.7c6.982 4.961 15.97 5.715 23.57 1.664l37.48-19.75l37.45 19.75C328.7 255.1 332.3 256 335.9 256c4.633 0 9.236-1.445 13.18-4.336c6.951-5.086 10.36-13.53 8.924-22.01l-7.201-41.89l30.34-29.52c6.199-6.027 8.391-14.86 5.729-23.11C384.2 126.9 377.3 121 368.8 119.8zM316.4 176.5L323.1 215.8L287.1 197.3L252.9 215.8l6.73-39.31L231.2 148.8l39.36-5.75l17.56-35.7l17.56 35.7l39.17 5.719L316.4 176.5zM572.2 76.72C570.7 69.31 564.1 64 556.6 64h-108.7c-.0137-6.172-.0496-12.01-.1805-17.34C447.1 20.5 425.1 0 399.7 0H176.3C150 0 128.9 20.5 128.3 46.66C128.1 51.99 128.1 57.83 128.1 64H19.43C11.87 64 5.336 69.31 3.773 76.72C2.898 80.91-17.19 180.8 45.04 272.8c41.67 61.64 109.9 104 202.5 126.7c14.29 3.5 24.43 16.23 24.43 30.95V480H176c-8.834 0-16.02 7.164-16.02 16S167.2 512 176 512H399.1c8.834 0 15.1-7.164 15.1-16S408.8 480 399.1 480h-95.97v-49.51c0-14.72 10.13-27.45 24.43-30.95c92.66-22.68 160.9-65.05 202.5-126.7C593.2 180.8 573.1 80.91 572.2 76.72zM71.79 255.3C29.2 192.6 30.55 123.8 33.33 96h95.38c3.016 77.71 19.29 188.6 81.19 258.1C148.4 332.9 101.9 299.6 71.79 255.3zM288 374.6C166.9 320.2 158.3 128.4 160.3 47.47C160.5 38.78 167.5 32 176.3 32h223.5c8.746 0 15.78 6.781 15.99 15.47C417.7 128.4 409.1 320.2 288 374.6zM504.2 255.3c-30.12 44.37-76.61 77.59-138.1 99.7C427.1 284.6 444.3 173.7 447.3 96h95.38C545.5 123.8 546.8 192.6 504.2 255.3z"/></svg>

<svg xmlns="http://www.w3.org/2000/svg" viewBox="0 0 576 512"><!-- Font Awesome Pro 6.0.0-alpha2 by @fontawesome - https://fontawesome.com License - https://fontawesome.com/license (Commercial License) --><path d="M368.792 119.812L326.932 113.688L308.21 75.598C300.602 60.117 275.524 60.148 267.979 75.598L249.225 113.688L207.272 119.844C198.725 121.066 191.776 126.938 189.114 135.164C186.452 143.422 188.645 152.25 194.811 158.246L225.149 187.766L217.948 229.715C216.54 238.227 219.983 246.672 226.934 251.727C233.917 256.688 242.901 257.441 250.508 253.391L287.985 233.641L325.43 253.391C328.749 255.148 332.348 256 335.919 256C340.551 256 345.155 254.555 349.098 251.664C356.049 246.578 359.462 238.133 358.022 229.652L350.821 187.766L381.159 158.246C387.358 152.219 389.549 143.391 386.887 135.133C384.227 126.906 377.276 121.035 368.792 119.812ZM316.381 176.523L323.114 215.836L287.985 197.34L252.858 215.836L259.589 176.523L231.161 148.828L270.516 143.078L288.079 107.375L305.643 143.078L344.809 148.797L316.381 176.523ZM572.227 76.719C570.665 69.312 564.135 64 556.575 64H447.954C447.94 57.828 447.864 51.992 447.733 46.656C447.077 20.5 425.991 0 399.749 0H176.253C150.01 0 128.924 20.5 128.268 46.656C128.137 51.992 128.061 57.828 128.047 64H19.426C11.866 64 5.337 69.312 3.774 76.719C2.899 80.906 -17.189 180.781 45.044 272.844C86.715 334.484 154.919 376.859 247.577 399.539C261.872 403.039 272.005 415.766 272.005 430.488V480H176.034C167.2 480 160.04 487.164 160.04 496S167.2 512 176.034 512H399.967C408.801 512 415.962 504.836 415.962 496S408.801 480 399.967 480H303.997V430.488C303.997 415.766 314.13 403.039 328.424 399.539C421.083 376.859 489.286 334.484 530.958 272.844C593.19 180.781 573.102 80.906 572.227 76.719ZM71.786 255.281C29.204 192.562 30.547 123.812 33.329 96H128.714C131.729 173.707 148.005 284.602 209.907 354.977C148.391 332.875 101.907 299.648 71.786 255.281ZM288.001 374.625C166.913 320.156 158.258 128.375 160.258 47.469C160.477 38.781 167.506 32 176.253 32H399.749C408.495 32 415.524 38.781 415.743 47.469C417.743 128.375 409.089 320.156 288.001 374.625ZM504.215 255.281C474.096 299.648 427.61 332.875 366.094 354.977C427.997 284.602 444.272 173.707 447.288 96H542.672C545.454 123.812 546.797 192.562 504.215 255.281Z"/></svg>
